X:84
T:Untitled. RHu.084
S:R.Hughes MS,1823,Whitchurch,Shrops.
N:Follows directly after end of Huntsman’s Chorus
N:but seems to be unconnected.
N:As writ. Middle section of B part goes a little awry.
A:Whitchurch, Shropshire
Z:Neil Brookes 2006
M:2/4
L:1/8
Q:1/4=100
R:Country Dance
K:G
G/A/|B3G/B/|d3B|cAGF|G/F/G/A/ GD/G/|B3G/B/|d3B|cAGF|G3::!
z|d2ef|g/f/e/d/ c/B/A/G/|e>d c/B/A/G/|F/G/A/F/|\
D2DB|B3G/B/|d3B|cAGF|G3::!
G/A/|B3c|dggf|edcB|cB/c/A2|G3A|Bee2|dcBA|G/F/G/A/G2:|

